X:7802
T:Unto the East Indies We Were Bound
O:england
B:Joyce, P. W.; "Old Irish Folk Music and Songs"
R:song
L:1/8
W:Unto the East Indies we were bound our gallant ship to steer,
W:And all the time that we sailed on, I thought on my Polly dear:
W:'Tis pressed I was from my truelove the girl whom I adore.
W:And sent unto the raging seas where stormy billows roar.
W:
W:Our captain being a valiant man upon the deck did stand,
W:With a full reward of fifty pounds to the first that should spy land:
W:Then up aloft two boatmen go unto the maintop so high--
W:An hour is past, and then at last--"'Tis land, 'tis land" they cry.
M:6/8
K:D
A|\
d2 d B2 G|A2 A F2 D|EFE D2 D|(D3 D2)|E2 D E2 F|
G2 F G2 A|BAB E2 E|(E3 E2) F|A2 F D2 F|A2 F G2 A|
Bcd e2 c|(d3 d2)c/d/|e2 c dcB|A2 F D2 D|EFG HA2 F|(D3 D2)||


